X:19052
T:Sweet Betsy from Pike
T:Villikins and his Dinah
R:Waltz
C:Trad.
O:USA after England
Z:Paul Hardy's Session Tunebook 2022 (see www.paulhardy.net). Creative Commons cc by-nc-sa licenced.
M:3/4
L:1/4
Q:1/4=160
K:G
G/G/|"G"G B d|"D"d c A|"G"A G G|G2 G/G/|G B d|"A7"g g g|"D"f/f/ d d|d2 d|
"G"g g g|"Bm"f d B|"C"c d e|"G"d2 G/A/|B B B|"D"d c A|A G F|"G"G2|]

